!!!OTL: Unser Vaterland.
!!!OTL-incipit: KENNT IHR DAS LAND
!!!COM: J. Duerrner
!!!ARE: Europa, Mitteleuropa, Deutschland
!!!SCT: F0464
!!!TXL: @@DE
!!!YEM: Copyright 1995, estate of Helmut Schaffrath.
**kern	**text
*ICvox	*
*M3/4	*
*k[]	*
*C:	*
=1	=1
!LO:TX:a:i:t=Sopran Solo.	!
!LO:TX:a:i:t=Moderato.	!
!LO:TX:a:t=Für gemischten Chor.	!
{4c	Kennt
4e	ihr
4g	das
=2	=2
(4cc	Land,
4ee)	.
4dd	ſo
=3	=3
8.dd	wun-
16cc	-der-
4cc}	-ſchön
{4a	in
=4	=4
(4a	ſei-
4ee)	.
4ee	-ner
=5	=5
2ff	Ei-
4dd	-chen
=6	=6
8.cc	grü-
16b	-nem
4b}	Kranʒ!
{4g	Das
=7	=7
2g	Land,
4cc	wo
=8	=8
(4b	auf
4a)	.
4g	den
=9	=9
(8gL	ſanf-
8ee	.
8ff	.
8eeJ)	.
(8ddL	-ten
8ccJ)	.
=10	=10
(4cc	Höh'n
8b)	.
8r}	.
{4g	die
=11	=11
8.a-	Trau-
16a-	-be
4a-	reiſt
4ee	im
=12	=12
2ee-	Son-
(8.dd-L	-nen-
16ccJ)	.
=13	=13
4cc	-glanʒ?
8r}	.
{8cc	Das
8a-	ſchö-
8g	-ne
=14	=14
8.f#	Land
16dd	iſt
4dd	uns
4dd	be-
=15	=15
2dd}	-kannt,
{4g	das
=16	=16
8.cc	schö-
16g	-ne
4g	Land
4b	iſt
=17	=17
8.cc	uns
16g	be-
4g}	-kannt,
{4dd	es
=18	=18
8.ee^	iſt
16cc	das
4cc	deut-
4dd	-ſche
=19	=19
8.ee^	Va-
16cc	-ter-
8cc}	-land,
{8g	es
8cc	iſt
8ee	das
=20	=20
[2.gg	deut-
=21	=21
(4gg^]	.
4ff)	.
4dd	-che
=22	=22
2cc	Va-
4b	-ter-
=23;	=23;
2.cc}	-land!
==	==
!!!AGN: Vaterlands -, Heimat - Lied
!!!ONB: ESAC (Essen Associative Code) Database: FINK
!!!AMT: simple triple
!!!AIN: vox
!!!EED: Helmut Schaffrath
!!!EEV: 1.0
!!Text: L. Waechter
!!!GTL: Vaterlands- und Heimathslieder.
!!!source: Musikalischer Hausschatz der Deutschen. Eine Sammlung von über 1000 Liedern und Gesängen mit Singstimmen und Klavierbegleitung. Leipzig, Litterarisches Verlags-Haus.
!!!page: 290
!!!ENC: Anna Maria Matuszewska
!!!EEV: 2024/03/14
*-	*-
